Printex-remake/img/icons/catalog/06.svg

<svg width="112" height="98" viewBox="0 0 112 98" fill="none" xmlns="http://www.w3.org/2000/svg">
<g clip-path="url(#clip0)">
<path d="M83.2415 57.4775L102.865 53.7953L56.9791 80.2838L44.0361 80.1111L83.2415 57.4775Z" fill="#E6E6E6"/>
<path d="M68.416 33.6563L102.864 53.7952L83.2551 58.565L82.7251 49.0255L67.8858 41.4733L68.416 33.6563Z" fill="#E6E6E6"/>
<path d="M70.5357 42.1357L82.9222 49.1584L44.1354 71.5503L5.34868 49.1584L7.99855 47.5019M7.20358 52.335L5.34863 53.5248L44.1354 75.9167L82.9221 53.5248L80.9687 52.3351M7.20358 56.5386L5.34863 57.7283L44.1354 80.1202L82.9221 57.7283L80.9687 56.5387" stroke="black" stroke-linejoin="bevel"/>
<path d="M36.6177 17.2268L67.8095 34.716C69.5475 44.512 64.1057 54.281 52.8027 61.656L44.1364 67.3106L8.46311 46.7161C24.7367 40.8467 35.1137 30.8097 36.3378 19.7546L36.6177 17.2268Z" fill="#F2F2F2"/>
<path d="M44.1327 66.7317L6.48347 44.9965C23.6443 37.8782 34.0359 26.3383 34.0359 13.8664L34.0359 12.7528L67.4717 30.23C71.2249 42.1872 64.7544 54.5716 49.7399 63.4252L44.1327 66.7317Z" stroke="black" stroke-linejoin="bevel"/>
<path d="M58.3466 32.5963L38.3765 21.4668C37.6692 25.0102 36.1777 28.4608 33.9678 31.7405" stroke="black" stroke-linejoin="bevel"/>
</g>
<defs>
<clipPath id="clip0">
<rect width="112" height="98" fill="white"/>
</clipPath>
</defs>
</svg>

<svg width="112" height="98" fill="none" xmlns="http://www.w3.org/2000/svg"><g clip-path="url(#clip0)"><path d="M83.242 57.477l19.623-3.682-45.886 26.489-12.943-.173 39.206-22.634z" fill="#E6E6E6"/><path d="M68.416 33.656l34.448 20.14-19.609 4.769-.53-9.54-14.84-7.552.531-7.817z" fill="#E6E6E6"/><path d="M70.536 42.136l12.386 7.022L44.135 71.55 5.35 49.158 8 47.502m-.795 4.833l-1.855 1.19 38.786 22.392 38.787-22.392-1.953-1.19M7.204 56.54l-1.855 1.19 38.786 22.39 38.787-22.392-1.953-1.19" stroke="#000" stroke-linejoin="bevel"/><path d="M36.618 17.227l31.191 17.489c1.739 9.796-3.703 19.565-15.006 26.94l-8.667 5.655L8.463 46.716c16.274-5.87 26.65-15.906 27.875-26.961l.28-2.528z" fill="#F2F2F2"/><path d="M44.133 66.732L6.483 44.996c17.161-7.118 27.553-18.658 27.553-31.13v-1.113L67.472 30.23c3.753 11.957-2.718 24.342-17.732 33.195l-5.607 3.307z" stroke="#000" stroke-linejoin="bevel"/><path d="M58.347 32.596l-19.97-11.13c-.708 3.544-2.2 6.995-4.41 10.274" stroke="#000" stroke-linejoin="bevel"/></g><defs><clipPath id="clip0"><path fill="#fff" d="M0 0h112v98H0z"/></clipPath></defs></svg>
